packages/icons/src/components/Logo/assets/dark/node-js.svg

<svg width="20" height="20" viewBox="0 0 20 20" fill="none" xmlns="http://www.w3.org/2000/svg">
<g>
<path d="M10.4727 0.125C10.1797 -0.0429688 9.82031 -0.0429688 9.52734 0.125L1.74219 4.64844C1.44531 4.81641 1.28125 5.13281 1.28125 5.46875V14.5312C1.28125 14.8672 1.46484 15.1836 1.74219 15.3516L9.53125 19.875C9.82422 20.043 10.1836 20.043 10.4766 19.875L18.2578 15.3516C18.5547 15.1836 18.7188 14.8672 18.7188 14.5312V5.46875C18.7188 5.13281 18.5352 4.81641 18.2578 4.64844L10.4727 0.125Z" fill="url(#paint0_linear_378_512)"/>
<path d="M18.2578 4.64864L10.4727 0.125204C10.2422 -0.0076089 9.96875 -0.0310464 9.71875 0.0470786L1.44531 15.0588C1.52344 15.176 1.62109 15.2775 1.73828 15.3518L9.52734 19.8752C9.76562 20.0119 10.043 20.0315 10.2969 19.9455L18.5469 4.9338C18.4727 4.82052 18.375 4.71895 18.2578 4.64864Z" fill="url(#paint1_linear_378_512)"/>
<path d="M9.52734 0.125204L1.74219 4.64864C1.61328 4.71895 1.51562 4.82442 1.44141 4.94161L9.70312 19.9455C9.95703 20.0315 10.2344 20.0119 10.4727 19.8752L18.2578 15.3518C18.3789 15.2854 18.4727 15.1877 18.5469 15.0783L10.2813 0.0470786C10.0313 -0.0310464 9.75781 -0.0076089 9.52734 0.125204Z" fill="url(#paint2_linear_378_512)"/>
</g>
<defs>
<linearGradient id="paint0_linear_378_512" x1="12.9188" y1="3.16367" x2="6.71668" y2="17.6902" gradientUnits="userSpaceOnUse">
<stop stop-color="#3F8B3D"/>
<stop offset="0.64" stop-color="#3F873F"/>
<stop offset="0.93" stop-color="#3DA92E"/>
<stop offset="1" stop-color="#3DAE2B"/>
</linearGradient>
<linearGradient id="paint1_linear_378_512" x1="8.7916" y1="10.6498" x2="28.5675" y2="0.0382892" gradientUnits="userSpaceOnUse">
<stop offset="0.14" stop-color="#3F873F"/>
<stop offset="0.4" stop-color="#52A044"/>
<stop offset="0.71" stop-color="#64B749"/>
<stop offset="0.91" stop-color="#6ABF4B"/>
</linearGradient>
<linearGradient id="paint2_linear_378_512" x1="1.37879" y1="9.99977" x2="18.9641" y2="9.99977" gradientUnits="userSpaceOnUse">
<stop offset="0.09" stop-color="#6ABF4B"/>
<stop offset="0.29" stop-color="#64B749"/>
<stop offset="0.6" stop-color="#52A044"/>
<stop offset="0.86" stop-color="#3F873F"/>
</linearGradient>
<clipPath id="clip0_378_512">
<rect width="20" height="20" fill="white"/>
</clipPath>
</defs>
</svg>

<svg xmlns="http://www.w3.org/2000/svg" width="20" height="20" fill="none" viewBox="0 0 20 20">
    <path fill="url(#a)" d="M10.473.125a.95.95 0 0 0-.946 0L1.742 4.648a.93.93 0 0 0-.46.82v9.063a.97.97 0 0 0 .46.82l7.79 4.524a.95.95 0 0 0 .945 0l7.78-4.523a.93.93 0 0 0 .462-.82V5.468a.97.97 0 0 0-.461-.82z"/>
    <path fill="url(#b)" d="M18.258 4.649 10.473.125a.94.94 0 0 0-.754-.078L1.445 15.06a1 1 0 0 0 .293.293l7.79 4.523a.93.93 0 0 0 .769.07l8.25-15.011a.9.9 0 0 0-.29-.285"/>
    <path fill="url(#c)" d="M9.527.125 1.742 4.65a.83.83 0 0 0-.3.293l8.261 15.003a.93.93 0 0 0 .77-.07l7.785-4.523a.84.84 0 0 0 .289-.274L10.28.048a.94.94 0 0 0-.754.077"/>
    <defs>
        <linearGradient id="a" x1="12.919" x2="6.717" y1="3.164" y2="17.69" gradientUnits="userSpaceOnUse">
            <stop stop-color="#3f8b3d"/>
            <stop offset=".64" stop-color="#3f873f"/>
            <stop offset=".93" stop-color="#3da92e"/>
            <stop offset="1" stop-color="#3dae2b"/>
        </linearGradient>
        <linearGradient id="b" x1="8.792" x2="28.567" y1="10.65" y2=".038" gradientUnits="userSpaceOnUse">
            <stop offset=".14" stop-color="#3f873f"/>
            <stop offset=".4" stop-color="#52a044"/>
            <stop offset=".71" stop-color="#64b749"/>
            <stop offset=".91" stop-color="#6abf4b"/>
        </linearGradient>
        <linearGradient id="c" x1="1.379" x2="18.964" y1="10" y2="10" gradientUnits="userSpaceOnUse">
            <stop offset=".09" stop-color="#6abf4b"/>
            <stop offset=".29" stop-color="#64b749"/>
            <stop offset=".6" stop-color="#52a044"/>
            <stop offset=".86" stop-color="#3f873f"/>
        </linearGradient>
    </defs>
</svg>
